X:7763
%16864
T:The Humours of Ballyloughlin
M:6/8
A:Ireland
R:Jig
K:Cmaj
"Dm"DED DCA,|"C"CA,G, A,CG,|"Dm"F2F FDG|"C"GFD CA,G,|
"Dm"DED DCA,|"C"~C3 FCA,|"G" G,A,G, G,B,D| [1G,A,G, G,3:| [2G,A,G, G,2E||
"Dm"EFF FDE|FDC DEF|"G"GAG GAG|GFD 
